;FLAVOR:Marlin
;TIME:2421
;Filament used: 1.13762m
;Layer height: 0.2
;MINX:81.22
;MINY:81.22
;MINZ:0.3
;MAXX:98.78
;MAXY:98.78
;MAXZ:30.1
;Generated with Cura_SteamEngine 4.13.1
M104 S210
M105
M109 S210
M82 ;absolute extrusion mode
G28 ; home all axes
 M117 Purge extruder
 G92 E0 ; reset extruder
 G1 Z1.0 F3000 ; move z up little to prevent scratching of surface
 G1 X2 Y20 Z0.3 F5000.0 ; move to start-line position
 G1 X2 Y175.0 Z0.3 F1500.0 E15 ; draw 1st line
 G1 X2 Y175.0 Z0.4 F5000.0 ; move to side a little
 G1 X2 Y20 Z0.4 F1500.0 E30 ; draw 2nd line
 G92 E0 ; reset extruder
 G1 Z1.0 F3000 ; move z up little to prevent scratching of surface
G92 E0
G92 E0
G1 F1500 E-1.6
;LAYER_COUNT:150
;LAYER:0
M107
;MESH:Holder-Lens_14mm.stl
G0 F1800 X89.573 Y97.957 Z0.3
;TYPE:WALL-OUTER
G1 F1500 E0
G1 F600 X90.259 Y97.956 E0.03765
G1 X90.595 Y97.949 E0.05609
G1 X90.929 Y97.906 E0.07457
G1 X91.607 Y97.803 E0.11221
G1 X91.938 Y97.729 E0.13082
G1 X92.592 Y97.526 E0.1684
G1 X92.911 Y97.42 E0.18685
G1 X93.218 Y97.281 E0.20534
G1 X93.835 Y96.984 E0.24292
G1 X94.129 Y96.815 E0.26153
G1 X94.696 Y96.428 E0.29921
G1 X94.969 Y96.231 E0.31768
G1 X95.222 Y96.009 E0.33615
G1 X95.724 Y95.543 E0.37374
G1 X95.955 Y95.294 E0.39238
G1 X96.382 Y94.758 E0.42999
G1 X96.585 Y94.49 E0.44844
G1 X96.76 Y94.203 E0.46689
G1 X97.104 Y93.61 E0.50451
G1 X97.251 Y93.304 E0.52314
G1 X97.501 Y92.667 E0.5607
G1 X97.617 Y92.35 E0.57922
G1 X97.699 Y92.023 E0.59772
G1 X97.851 Y91.355 E0.63532
G1 X97.903 Y91.02 E0.65392
G1 X97.953 Y90.337 E0.69151
G1 X97.97 Y90 E0.71002
G1 X97.954 Y89.664 E0.72848
G1 X97.902 Y88.982 E0.76602
G1 X97.852 Y88.646 E0.78466
G1 X97.698 Y87.978 E0.82228
G1 X97.617 Y87.651 E0.84077
G1 X97.502 Y87.334 E0.85928
G1 X97.25 Y86.697 E0.89687
G1 X97.105 Y86.392 E0.9154
G1 X96.761 Y85.797 E0.95312
G1 X96.585 Y85.51 E0.9716
G1 X96.383 Y85.243 E0.98997
G1 X95.954 Y84.708 E1.02761
G1 X95.725 Y84.459 E1.04617
G1 X95.223 Y83.992 E1.0838
G1 X94.969 Y83.769 E1.10235
G1 X94.697 Y83.573 E1.12075
G1 X94.13 Y83.187 E1.15839
G1 X93.836 Y83.015 E1.17708
G1 X93.219 Y82.72 E1.21461
G1 X92.912 Y82.58 E1.23313
G1 X92.593 Y82.474 E1.25158
G1 X91.939 Y82.272 E1.28914
G1 X91.608 Y82.196 E1.30778
G1 X90.93 Y82.095 E1.3454
G1 X90.596 Y82.051 E1.36389
G1 X90.26 Y82.043 E1.38233
G1 X89.575 Y82.044 E1.41992
G1 X89.236 Y82.069 E1.43858
G1 X88.559 Y82.172 E1.47616
G1 X88.226 Y82.229 E1.4947
G1 X87.903 Y82.32 E1.51312
G1 X87.248 Y82.523 E1.55075
G1 X86.932 Y82.646 E1.56936
G1 X86.315 Y82.943 E1.60694
G1 X86.015 Y83.097 E1.62544
G1 X85.732 Y83.28 E1.64394
G1 X85.167 Y83.667 E1.68152
G1 X84.901 Y83.877 E1.70012
G1 X84.398 Y84.344 E1.73779
G1 X84.156 Y84.579 E1.7563
G1 X83.941 Y84.837 E1.77473
G1 X83.515 Y85.372 E1.81226
G1 X83.323 Y85.653 E1.83094
G1 X82.98 Y86.245 E1.86849
G1 X82.819 Y86.541 E1.88698
G1 X82.688 Y86.851 E1.90545
G1 X82.438 Y87.489 E1.94305
G1 X82.337 Y87.813 E1.96168
G1 X82.186 Y88.482 E1.99931
G1 X82.118 Y88.812 E2.0178
G1 X82.085 Y89.147 E2.03628
G1 X82.035 Y89.83 E2.07386
G1 X82.034 Y90.169 E2.09247
G1 X82.086 Y90.852 E2.13006
G1 X82.118 Y91.187 E2.14852
G1 X82.185 Y91.517 E2.167
G1 X82.338 Y92.186 E2.20467
G1 X82.437 Y92.51 E2.22326
G1 X82.689 Y93.148 E2.2609
G1 X82.818 Y93.458 E2.27933
G1 X82.979 Y93.754 E2.29782
G1 X83.324 Y94.346 E2.33543
G1 X83.514 Y94.626 E2.354
G1 X83.941 Y95.162 E2.3916
G1 X84.156 Y95.421 E2.41008
G1 X84.397 Y95.655 E2.42851
G1 X84.899 Y96.122 E2.46614
G1 X85.165 Y96.334 E2.4848
G1 X85.731 Y96.719 E2.52237
G1 X86.015 Y96.903 E2.54094
G1 X86.314 Y97.056 E2.55937
G1 X86.931 Y97.353 E2.59695
G1 X87.247 Y97.478 E2.6156
G1 X87.902 Y97.679 E2.6532
G1 X88.226 Y97.771 E2.67169
G1 X88.558 Y97.829 E2.69018
G1 X89.235 Y97.93 E2.72775
G1 X89.573 Y97.957 E2.74636
G0 F1800 X90 Y98.295
G1 F600 X89.381 Y98.272 E2.78035
G1 X88.814 Y98.21 E2.81165
G1 X88.155 Y98.087 E2.84844
G1 X87.665 Y97.961 E2.87621
G1 X86.961 Y97.718 E2.91708
G1 X86.564 Y97.549 E2.94076
G1 X85.844 Y97.178 E2.98521
G1 X85.519 Y96.982 E3.00604
G1 X84.825 Y96.484 E3.05291
G1 X84.577 Y96.276 E3.07068
G1 X83.729 Y95.428 E3.13649
G1 X83.02 Y94.483 E3.20133
G1 X82.456 Y93.447 E3.26606
G1 X82.04 Y92.338 E3.33106
G1 X81.79 Y91.178 E3.39618
G1 X81.704 Y90 E3.461
G1 X81.797 Y88.763 E3.52908
G1 X82.074 Y87.558 E3.59693
G1 X82.525 Y86.403 E3.66498
G1 X83.148 Y85.324 E3.73336
G1 X83.922 Y84.358 E3.80129
G1 X84.57 Y83.73 E3.85081
G1 X84.826 Y83.517 E3.86909
G1 X85.512 Y83.025 E3.91541
G1 X85.85 Y82.819 E3.93714
G1 X86.564 Y82.451 E3.98122
G1 X86.961 Y82.282 E4.0049
G1 X87.665 Y82.039 E4.04577
G1 X88.155 Y81.913 E4.07354
G1 X88.814 Y81.79 E4.11033
G1 X89.382 Y81.729 E4.14168
G1 X89.999 Y81.704 E4.17556
G1 X90.268 Y81.716 E4.19034
G1 X90.619 Y81.728 E4.20962
G1 X91.187 Y81.791 E4.24098
G1 X91.84 Y81.911 E4.27741
G1 X92.343 Y82.043 E4.30595
G1 X93.035 Y82.28 E4.3461
G1 X93.437 Y82.451 E4.37007
G1 X94.158 Y82.821 E4.41454
G1 X94.475 Y83.016 E4.43497
G1 X95.174 Y83.517 E4.48216
G1 X95.422 Y83.723 E4.49986
G1 X96.271 Y84.572 E4.56575
G1 X96.979 Y85.518 E4.63059
G1 X97.544 Y86.553 E4.69531
G1 X97.958 Y87.662 E4.76027
G1 X98.21 Y88.824 E4.82552
G1 X98.295 Y90 E4.89023
G1 X98.203 Y91.237 E4.9583
G1 X97.926 Y92.442 E5.02616
G1 X97.474 Y93.596 E5.09417
G1 X96.851 Y94.675 E5.16255
G1 X96.078 Y95.643 E5.23053
G1 X95.43 Y96.27 E5.28001
G1 X95.174 Y96.483 E5.29829
G1 X94.489 Y96.976 E5.34461
G1 X94.151 Y97.182 E5.36633
G1 X93.44 Y97.549 E5.41024
G1 X93.033 Y97.72 E5.43447
G1 X92.335 Y97.961 E5.47499
G1 X91.843 Y98.087 E5.50286
G1 X91.186 Y98.209 E5.53953
G1 X90.862 Y98.246 E5.55743
G1 X90.62 Y98.271 E5.57078
G1 X90 Y98.295 E5.60483
;MESH:NONMESH
G0 F240 X90 Y98.295 Z0.5
G0 F1800 X89.835 Y97.718
;TIME_ELAPSED:20.643662
;LAYER:1
M106 S95.6
;TYPE:WALL-OUTER
;MESH:Holder-Lens_14mm.stl
G1 F600 X90.493 Y97.701 E5.62892
G1 X90.665 Y97.689 E5.63522
G1 X91.323 Y97.605 E5.65949
G1 X92.13 Y97.42 E5.68978
G1 X92.758 Y97.208 E5.71403
G1 X92.918 Y97.143 E5.72035
G1 X93.519 Y96.871 E5.74449
G1 X94.09 Y96.542 E5.7686
G1 X94.237 Y96.451 E5.77492
G1 X94.773 Y96.065 E5.79909
G1 X94.906 Y95.954 E5.80543
G1 X95.399 Y95.517 E5.82953
G1 X95.848 Y95.035 E5.85363
G1 X95.961 Y94.903 E5.85999
G1 X96.36 Y94.374 E5.88423
G1 X96.792 Y93.666 E5.91457
G1 X97.08 Y93.073 E5.93869
G1 X97.147 Y92.912 E5.94507
G1 X97.373 Y92.29 E5.96928
G1 X97.575 Y91.486 E5.99961
G1 X97.673 Y90.832 E6.02381
G1 X97.688 Y90.66 E6.03013
G1 X97.719 Y90 E6.0543
G1 X97.687 Y89.342 E6.0784
G1 X97.674 Y89.17 E6.08471
G1 X97.574 Y88.516 E6.10892
G1 X97.535 Y88.348 E6.11523
G1 X97.372 Y87.71 E6.13932
G1 X97.146 Y87.09 E6.16346
G1 X97.081 Y86.93 E6.16978
G1 X96.792 Y86.334 E6.19401
G1 X96.361 Y85.626 E6.22434
G1 X95.962 Y85.098 E6.24855
G1 X95.849 Y84.966 E6.25491
G1 X95.399 Y84.483 E6.27906
G1 X94.907 Y84.048 E6.30309
G1 X94.775 Y83.935 E6.30945
G1 X94.238 Y83.55 E6.33362
G1 X94.091 Y83.459 E6.33995
G1 X93.519 Y83.129 E6.36411
G1 X92.92 Y82.858 E6.38816
G1 X92.76 Y82.791 E6.39451
G1 X92.132 Y82.582 E6.41872
G1 X91.965 Y82.54 E6.42502
G1 X91.322 Y82.395 E6.44914
G1 X90.668 Y82.312 E6.47326
G1 X90.496 Y82.298 E6.47957
G1 X89.834 Y82.282 E6.5038
G1 X89.008 Y82.344 E6.5341
G1 X88.356 Y82.459 E6.55832
G1 X88.187 Y82.499 E6.56468
G1 X87.55 Y82.679 E6.5889
G1 X86.781 Y82.983 E6.61915
G1 X86.19 Y83.288 E6.64348
G1 X86.043 Y83.378 E6.64979
G1 X85.491 Y83.735 E6.67384
G1 X84.974 Y84.145 E6.69798
G1 X84.842 Y84.258 E6.70434
G1 X84.368 Y84.721 E6.72858
G1 X83.834 Y85.355 E6.75891
G1 X83.462 Y85.9 E6.78305
G1 X83.371 Y86.048 E6.7894
G1 X83.056 Y86.631 E6.81365
G1 X82.733 Y87.394 E6.84396
G1 X82.539 Y88.026 E6.86815
G1 X82.497 Y88.194 E6.87448
G1 X82.367 Y88.841 E6.89863
G1 X82.302 Y89.496 E6.92271
G1 X82.287 Y89.668 E6.92903
G1 X82.288 Y90.33 E6.95325
G1 X82.301 Y90.502 E6.95956
G1 X82.367 Y91.159 E6.98372
G1 X82.498 Y91.804 E7.0078
G1 X82.538 Y91.972 E7.01411
G1 X82.734 Y92.604 E7.03832
G1 X82.799 Y92.764 E7.04464
G1 X83.056 Y93.37 E7.06872
G1 X83.372 Y93.95 E7.09289
G1 X83.461 Y94.098 E7.09921
G1 X83.834 Y94.645 E7.12343
G1 X84.367 Y95.279 E7.15373
G1 X84.842 Y95.742 E7.178
G1 X84.973 Y95.854 E7.18431
G1 X85.491 Y96.265 E7.2085
G1 X86.041 Y96.621 E7.23247
G1 X86.188 Y96.713 E7.23881
G1 X86.778 Y97.015 E7.26306
G1 X86.938 Y97.081 E7.2694
G1 X87.551 Y97.321 E7.29348
G1 X88.185 Y97.5 E7.31758
G1 X88.354 Y97.541 E7.32395
G1 X89.006 Y97.654 E7.34816
G1 X89.177 Y97.669 E7.35444
G1 X89.835 Y97.718 E7.37858
G0 F2700 X90 Y98.576
G1 F600 X89.362 Y98.551 E7.40194
G1 X88.772 Y98.487 E7.42365
G1 X88.098 Y98.363 E7.44872
G1 X87.578 Y98.227 E7.46839
G1 X86.873 Y97.985 E7.49566
G1 X86.432 Y97.798 E7.51318
G1 X85.713 Y97.427 E7.54278
G1 X85.367 Y97.218 E7.55757
G1 X84.644 Y96.698 E7.59015
G1 X84.396 Y96.492 E7.60195
G1 X83.516 Y95.612 E7.64748
G1 X82.786 Y94.638 E7.69201
G1 X82.198 Y93.562 E7.73688
G1 X81.772 Y92.417 E7.78157
G1 X81.512 Y91.217 E7.82649
G1 X81.424 Y90 E7.87114
G1 X81.519 Y88.72 E7.91809
G1 X81.804 Y87.476 E7.96479
G1 X82.273 Y86.282 E8.01172
G1 X82.915 Y85.166 E8.05882
G1 X83.715 Y84.166 E8.10568
G1 X84.386 Y83.517 E8.13983
G1 X84.65 Y83.296 E8.15243
G1 X85.367 Y82.782 E8.1847
G1 X85.713 Y82.573 E8.19949
G1 X86.433 Y82.2 E8.22916
G1 X86.869 Y82.016 E8.24647
G1 X87.578 Y81.773 E8.27389
G1 X88.099 Y81.637 E8.29359
G1 X88.772 Y81.513 E8.31863
G1 X89.361 Y81.449 E8.34031
G1 X90.001 Y81.423 E8.36374
G1 X90.639 Y81.448 E8.3871
G1 X91.228 Y81.513 E8.40878
G1 X91.902 Y81.636 E8.43385
G1 X92.422 Y81.773 E8.45352
G1 X93.138 Y82.017 E8.4812
G1 X93.553 Y82.195 E8.49772
G1 X94.298 Y82.578 E8.52837
G1 X94.636 Y82.783 E8.54283
G1 X95.355 Y83.301 E8.57525
G1 X95.604 Y83.508 E8.5871
G1 X96.484 Y84.388 E8.63263
G1 X97.216 Y85.365 E8.67729
G1 X97.8 Y86.436 E8.72192
G1 X98.228 Y87.583 E8.76671
G1 X98.488 Y88.783 E8.81164
G1 X98.576 Y90 E8.85628
G1 X98.48 Y91.279 E8.9032
G1 X98.196 Y92.524 E8.94992
G1 X97.727 Y93.722 E8.99699
G1 X97.654 Y93.845 E9.00223
G1 X97.085 Y94.834 E9.04397
G1 X96.285 Y95.834 E9.09082
G1 X95.614 Y96.483 E9.12498
G1 X95.35 Y96.704 E9.13757
G1 X94.633 Y97.218 E9.16985
G1 X94.287 Y97.427 E9.18464
G1 X93.568 Y97.798 E9.21424
G1 X93.127 Y97.985 E9.23176
G1 X92.422 Y98.227 E9.25904
G1 X91.902 Y98.363 E9.2787
G1 X91.228 Y98.487 E9.30377
G1 X90.638 Y98.551 E9.32549
G1 X90 Y98.576 E9.34884
G0 F2700 X90.094 Y98.136
;TYPE:SKIN
G1 F750 X89.785 Y98.135 E9.36118
G1 X88.385 Y97.978 E9.4174
G1 X86.951 Y97.547 E9.47715
G1 X85.71 Y96.921 E9.53262
G1 X84.476 Y95.975 E9.59468
G1 X83.45 Y94.824 E9.65621
G1 X82.738 Y93.669 E9.71036
G1 X82.204 Y92.336 E9.76767
G1 X81.93 Y91.055 E9.81994
G1 X81.879 Y89.551 E9.88
G1 X82.003 Y88.493 E9.92251
G1 X82.379 Y87.183 E9.9769
G0 F2700 X82.36 Y86.58
G1 F750 X83.634 Y85.307 E10.00985
G0 F2700 X83.185 Y85.134
G1 F750 X85.141 Y83.178 E10.06045
G0 F2700 X85.295 Y83.646
G1 F750 X86.609 Y82.331 E10.09446
G0 F2700 X87.193 Y82.37
G1 F750 X87.663 Y82.211 E10.1194
G1 X86.646 Y82.606 E10.17425
G0 F2700 X85.982 Y82.648
G1 F750 X82.689 Y85.941 E10.25944
G0 F2700 X83.092 Y86.16
G1 F750 X82.159 Y87.093 E10.28358
G0 F2700 X84.816 Y84.229
G0 X85.901 Y83.434
G0 X87.768 Y82.418
G0 X88.09 Y82.095
G1 F750 X88.495 Y82.001 E10.30022
G1 X89.879 Y81.861 E10.35588
G1 X91.327 Y81.969 E10.41398
G1 X92.575 Y82.278 E10.46543
G1 X93.878 Y82.841 E10.52223
G1 X95.18 Y83.716 E10.585
G1 X96.269 Y84.806 E10.64666
G1 X97.143 Y86.109 E10.70944
G1 X97.711 Y87.409 E10.76621
G1 X98.067 Y88.918 E10.82825
G1 X98.124 Y90.417 E10.88827
G1 X97.904 Y91.882 E10.94755
G1 X97.64 Y92.769 E10.98459
G0 F2700 X97.655 Y93.376
G1 F750 X96.416 Y94.615 E11.01664
G0 F2700 X96.908 Y94.745
G1 F750 X94.771 Y96.882 E11.07192
G0 F2700 X94.629 Y96.402
G1 F750 X93.348 Y97.683 E11.10506
G0 F2700 X92.769 Y97.639
G1 F750 X92.299 Y97.798 E11.13002
G1 X93.31 Y97.409 E11.18451
G0 F2700 X93.965 Y97.377
G1 F750 X97.341 Y94.001 E11.27185
G0 F2700 X97.402 Y93.317
G1 F750 X97.783 Y92.314 E11.3129
G0 F2700 X98.124 Y91.974
G0 X95.877 Y95.061
G0 X94.797 Y96.096
G0 X93.777 Y96.752
G0 X92.186 Y97.601
G0 X91.87 Y97.916
G1 F750 X91.478 Y97.996 E11.33531
G1 X90.413 Y98.128 E11.39541
G0 F2700 X90.155 Y98.151
;MESH:NONMESH
G0 F240 X90.155 Y98.151 Z0.7
G0 F2700 X89.93 Y97.959
;TIME_ELAPSED:37.009435
;LAYER:2
M106 S191.3
;TYPE:WALL-INNER
;MESH:Holder-Lens_14mm.stl
G1 F1200 X90.195 Y97.953 E11.40511
G1 X91.034 Y97.888 E11.4359
G1 X91.296 Y97.853 E11.44557
G1 X91.76 Y97.744 E11.46301
G1 X92.356 Y97.603 E11.48541
G1 X92.609 Y97.517 E11.49519
G1 X93.387 Y97.195 E11.526
G1 X93.618 Y97.089 E11.53529
G1 X93.84 Y96.964 E11.54461
G1 X94.559 Y96.522 E11.57549
G1 X94.775 Y96.366 E11.58524
G1 X95.413 Y95.821 E11.61594
G1 X95.603 Y95.654 E11.6252
G1 X95.78 Y95.464 E11.6347
G1 X96.329 Y94.822 E11.6656
G1 X96.489 Y94.608 E11.67538
G1 X97.055 Y93.684 E11.71502
G1 X97.171 Y93.445 E11.72474
G1 X97.494 Y92.667 E11.75556
G1 X97.584 Y92.42 E11.76518
G1 X97.646 Y92.176 E11.77439
G1 X97.842 Y91.358 E11.80516
G1 X97.881 Y91.095 E11.81489
G1 X97.948 Y90.256 E11.84568
G1 X97.959 Y89.998 E11.85513
G1 X97.947 Y89.744 E11.86444
G1 X97.882 Y88.905 E11.89522
G1 X97.841 Y88.642 E11.90496
G1 X97.647 Y87.825 E11.93568
G1 X97.582 Y87.578 E11.94503
G1 X97.493 Y87.333 E11.95456
G1 X97.172 Y86.556 E11.98532
G1 X97.055 Y86.316 E11.99509
G1 X96.489 Y85.391 E12.03477
G1 X96.329 Y85.178 E12.04451
G1 X95.781 Y84.537 E12.07537
G1 X95.603 Y84.347 E12.08489
G1 X95.416 Y84.18 E12.09406
G1 X94.775 Y83.632 E12.12492
G1 X94.558 Y83.477 E12.13467
G1 X93.842 Y83.038 E12.1654
G1 X93.619 Y82.911 E12.17479
G1 X93.388 Y82.806 E12.18407
G1 X92.609 Y82.481 E12.21496
G1 X92.355 Y82.397 E12.22474
G1 X91.539 Y82.201 E12.25545
G1 X91.292 Y82.146 E12.26471
G1 X91.034 Y82.113 E12.27422
G1 X90.194 Y82.046 E12.30505
G1 X89.929 Y82.041 E12.31475
G1 X89.399 Y82.082 E12.3342
G1 X88.844 Y82.125 E12.35456
G1 X88.581 Y82.172 E12.36434
G1 X87.764 Y82.366 E12.39506
G1 X87.511 Y82.438 E12.40468
G1 X87.277 Y82.531 E12.4139
G1 X86.499 Y82.852 E12.44469
G1 X86.262 Y82.976 E12.45447
G1 X85.545 Y83.413 E12.48519
G1 X85.334 Y83.552 E12.49444
G1 X85.132 Y83.71 E12.50382
G1 X84.489 Y84.26 E12.53478
G1 X84.3 Y84.447 E12.54451
G1 X83.754 Y85.084 E12.5752
G1 X83.594 Y85.276 E12.58434
G1 X83.446 Y85.492 E12.59392
G1 X83.004 Y86.211 E12.6248
G1 X82.879 Y86.445 E12.63451
G1 X82.782 Y86.672 E12.64354
G1 X82.459 Y87.451 E12.67439
G1 X82.382 Y87.704 E12.68407
G1 X82.185 Y88.521 E12.71482
G1 X82.134 Y88.778 E12.7244
G1 X82.11 Y89.029 E12.73363
G1 X82.042 Y89.867 E12.76439
G1 X82.043 Y90.134 E12.77416
G1 X82.109 Y90.97 E12.80484
G1 X82.134 Y91.225 E12.81421
G1 X82.186 Y91.479 E12.8237
G1 X82.381 Y92.296 E12.85443
G1 X82.461 Y92.551 E12.86421
G1 X82.782 Y93.328 E12.89496
G1 X82.881 Y93.558 E12.90412
G1 X83.006 Y93.789 E12.91373
G1 X83.444 Y94.507 E12.9445
G1 X83.594 Y94.724 E12.95416
G1 X83.752 Y94.914 E12.9632
G1 X84.3 Y95.556 E12.99408
G1 X84.491 Y95.742 E13.00383
G1 X85.131 Y96.289 E13.03463
G1 X85.334 Y96.448 E13.04407
G1 X85.544 Y96.586 E13.05326
G1 X86.262 Y97.026 E13.08407
G1 X86.499 Y97.148 E13.09382
G1 X87.277 Y97.47 E13.12463
G1 X87.514 Y97.563 E13.13394
G1 X87.763 Y97.633 E13.14341
G1 X88.582 Y97.83 E13.17423
G1 X88.846 Y97.875 E13.18402
G1 X89.396 Y97.917 E13.2042
G1 X89.93 Y97.959 E13.2238
G0 F3600 X89.941 Y97.519
;TYPE:WALL-OUTER
G1 F600 X90.172 Y97.513 E13.23226
G1 X90.988 Y97.45 E13.2622
G1 X91.217 Y97.42 E13.27065
G1 X92.234 Y97.18 E13.30888
G1 X92.454 Y97.105 E13.31738
G1 X93.211 Y96.792 E13.34735
G1 X93.418 Y96.697 E13.35569
G1 X93.617 Y96.585 E13.36404
G1 X94.315 Y96.156 E13.39402
G1 X94.503 Y96.02 E13.4025
G1 X95.125 Y95.489 E13.43243
G1 X95.296 Y95.338 E13.44077
G1 X95.452 Y95.171 E13.44913
G1 X95.985 Y94.547 E13.47916
G1 X96.124 Y94.361 E13.48765
G1 X96.669 Y93.472 E13.5258
G1 X96.77 Y93.264 E13.53426
G1 X97.084 Y92.507 E13.56425
G1 X97.163 Y92.29 E13.5727
G1 X97.219 Y92.07 E13.581
G1 X97.41 Y91.274 E13.61095
G1 X97.444 Y91.045 E13.61942
G1 X97.509 Y90.229 E13.64937
G1 X97.519 Y89.999 E13.65779
G1 X97.508 Y89.772 E13.66611
G1 X97.445 Y88.956 E13.69605
G1 X97.409 Y88.727 E13.70453
G1 X97.22 Y87.931 E13.73446
G1 X97.162 Y87.709 E13.74286
G1 X97.083 Y87.493 E13.75127
G1 X96.771 Y86.737 E13.78119
G1 X96.669 Y86.528 E13.7897
G1 X96.125 Y85.638 E13.82787
G1 X95.986 Y85.453 E13.83633
