;FLAVOR:Marlin
;TIME:1007
;Filament used: 0.771005m
;Layer height: 0.2
;MINX:72.72
;MINY:76.22
;MINZ:0.2
;MAXX:107.28
;MAXY:103.78
;MAXZ:5.8
;Generated with Cura_SteamEngine 4.13.1
M140 S70
M105
M190 S70
M104 S230
M105
M109 S230
M82 ;absolute extrusion mode
G28 ; home all axes
 M117 Purge extruder
 G92 E0 ; reset extruder
 G1 Z1.0 F3000 ; move z up little to prevent scratching of surface
 G1 X2 Y20 Z0.3 F5000.0 ; move to start-line position
 G1 X2 Y175.0 Z0.3 F1500.0 E15 ; draw 1st line
 G1 X2 Y175.0 Z0.4 F5000.0 ; move to side a little
 G1 X2 Y20 Z0.4 F1500.0 E30 ; draw 2nd line
 G92 E0 ; reset extruder
 G1 Z1.0 F3000 ; move z up little to prevent scratching of surface
G92 E0
G92 E0
G1 F2400 E-1.5
;LAYER_COUNT:29
;LAYER:0
M107
;MESH:Holder-PhotoResistor.stl
G0 F6000 X90.097 Y94.015 Z0.2
;TYPE:WALL-INNER
G1 F2400 E0
G1 F900 X90.902 Y94.015 E0.02945
G1 X91.685 Y93.822 E0.05896
G1 X92.397 Y93.448 E0.08838
G1 X93 Y92.914 E0.11785
G1 X93.458 Y92.252 E0.1473
G1 X93.742 Y91.498 E0.17678
G1 X93.835 Y90.74 E0.20472
G1 X93.834 Y89.26 E0.25887
G1 X93.742 Y88.502 E0.2868
G1 X93.456 Y87.749 E0.31627
G1 X93 Y87.086 E0.34571
G1 X92.397 Y86.552 E0.37518
G1 X91.684 Y86.179 E0.40462
G1 X90.903 Y85.985 E0.43406
G1 X90.098 Y85.985 E0.46351
G1 X89.315 Y86.178 E0.49302
G1 X88.603 Y86.552 E0.52244
G1 X88 Y87.086 E0.55191
G1 X87.542 Y87.748 E0.58136
G1 X87.258 Y88.502 E0.61084
G1 X87.165 Y89.26 E0.63878
G1 X87.166 Y90.74 E0.69293
G1 X87.258 Y91.498 E0.72086
G1 X87.544 Y92.251 E0.75033
G1 X88 Y92.914 E0.77977
G1 X88.603 Y93.448 E0.80924
G1 X89.316 Y93.821 E0.83868
G1 X90.097 Y94.015 E0.86813
G0 F6000 X90.151 Y93.575
;TYPE:WALL-OUTER
G1 F900 X90.849 Y93.575 E0.89366
G1 X91.528 Y93.408 E0.91924
G1 X92.145 Y93.083 E0.94476
G1 X92.668 Y92.62 E0.97031
G1 X93.065 Y92.046 E0.99585
G1 X93.312 Y91.392 E1.02142
G1 X93.395 Y90.713 E1.04645
G1 X93.394 Y89.287 E1.09862
G1 X93.312 Y88.608 E1.12365
G1 X93.064 Y87.955 E1.1492
G1 X92.668 Y87.38 E1.17474
G1 X92.145 Y86.917 E1.2003
G1 X91.527 Y86.593 E1.22583
G1 X90.849 Y86.425 E1.25138
G1 X90.151 Y86.425 E1.27692
G1 X89.472 Y86.592 E1.3025
G1 X88.855 Y86.917 E1.32802
G1 X88.332 Y87.38 E1.35357
G1 X87.935 Y87.954 E1.37911
G1 X87.688 Y88.608 E1.40468
G1 X87.605 Y89.287 E1.42971
G1 X87.606 Y90.713 E1.48188
G1 X87.688 Y91.392 E1.50691
G1 X87.936 Y92.045 E1.53246
G1 X88.332 Y92.62 E1.558
G1 X88.855 Y93.083 E1.58356
G1 X89.473 Y93.407 E1.60909
G1 X90.151 Y93.575 E1.63464
G0 F6000 X90.093 Y94.055
G0 X90.085 Y94.114
G0 X101.474 Y102.893
G0 X101.478 Y102.992
;TYPE:WALL-INNER
G1 F900 X78.522 Y102.992 E2.47452
G1 X77.64 Y102.916 E2.50691
G1 X76.79 Y102.688 E2.5391
G1 X76.005 Y102.321 E2.57081
G1 X75.294 Y101.825 E2.60252
G1 X74.676 Y101.205 E2.63455
G1 X74.179 Y100.494 E2.66629
G1 X73.81 Y99.706 E2.69812
G1 X73.583 Y98.864 E2.73003
G1 X73.508 Y97.98 E2.76249
G1 X73.508 Y82.022 E3.34633
G1 X73.584 Y81.14 E3.37872
G1 X73.812 Y80.29 E3.41091
G1 X74.179 Y79.506 E3.44259
G1 X74.676 Y78.795 E3.47432
G1 X75.295 Y78.176 E3.50635
G1 X76.006 Y77.679 E3.53809
G1 X76.79 Y77.312 E3.56976
G1 X77.64 Y77.084 E3.60196
G1 X78.522 Y77.008 E3.63435
G1 X101.478 Y77.008 E4.47422
G1 X102.36 Y77.084 E4.50661
G1 X103.21 Y77.312 E4.5388
G1 X103.995 Y77.679 E4.57051
G1 X104.706 Y78.175 E4.60222
G1 X105.324 Y78.795 E4.63425
G1 X105.821 Y79.506 E4.66599
G1 X106.19 Y80.294 E4.69782
G1 X106.417 Y81.136 E4.72973
G1 X106.492 Y82.02 E4.76219
G1 X106.492 Y97.978 E5.34603
G1 X106.416 Y98.86 E5.37842
G1 X106.188 Y99.71 E5.41062
G1 X105.821 Y100.494 E5.44229
G1 X105.324 Y101.205 E5.47402
G1 X104.705 Y101.824 E5.50605
G1 X103.994 Y102.321 E5.53779
G1 X103.21 Y102.688 E5.56946
G1 X102.36 Y102.916 E5.60166
G1 X101.478 Y102.992 E5.63405
G0 F6000 X101.493 Y103.432
;TYPE:WALL-OUTER
G1 F900 X78.507 Y103.432 E6.47502
G1 X77.561 Y103.35 E6.50976
G1 X76.638 Y103.103 E6.54471
G1 X75.784 Y102.704 E6.5792
G1 X75.009 Y102.163 E6.61378
G1 X74.338 Y101.49 E6.64855
G1 X73.796 Y100.715 E6.68315
G1 X73.395 Y99.857 E6.7178
G1 X73.149 Y98.945 E6.75236
G1 X73.068 Y97.993 E6.78731
G1 X73.068 Y82.007 E7.37218
G1 X73.15 Y81.061 E7.40692
G1 X73.397 Y80.138 E7.44188
G1 X73.796 Y79.285 E7.47633
G1 X74.336 Y78.513 E7.5108
G1 X75.013 Y77.836 E7.54583
G1 X75.785 Y77.296 E7.5803
G1 X76.638 Y76.897 E7.61475
G1 X77.561 Y76.65 E7.64971
G1 X78.507 Y76.568 E7.68445
G1 X101.493 Y76.568 E8.52542
G1 X102.439 Y76.65 E8.56016
G1 X103.362 Y76.897 E8.59511
G1 X104.216 Y77.296 E8.6296
G1 X104.991 Y77.837 E8.66418
G1 X105.662 Y78.51 E8.69895
G1 X106.204 Y79.285 E8.73355
G1 X106.605 Y80.143 E8.7682
G1 X106.851 Y81.055 E8.80276
G1 X106.932 Y82.007 E8.83771
G1 X106.932 Y97.993 E9.42258
G1 X106.85 Y98.939 E9.45732
G1 X106.603 Y99.862 E9.49228
G1 X106.204 Y100.715 E9.52673
G1 X105.664 Y101.487 E9.5612
G1 X104.987 Y102.164 E9.59623
G1 X104.215 Y102.704 E9.6307
G1 X103.362 Y103.103 E9.66515
G1 X102.439 Y103.35 E9.70011
G1 X101.493 Y103.432 E9.73485
G0 F6000 X101.473 Y102.949
G0 X101.465 Y102.562
;TYPE:SKIN
G1 F900 X78.535 Y102.562 E10.57377
G1 X77.717 Y102.492 E10.60381
G1 X76.936 Y102.282 E10.63339
G1 X76.22 Y101.947 E10.66232
G1 X75.574 Y101.497 E10.69112
G1 X75.005 Y100.927 E10.72059
G1 X74.553 Y100.278 E10.74952
G1 X74.216 Y99.56 E10.77854
G1 X74.008 Y98.787 E10.80783
G1 X73.938 Y97.967 E10.83794
G1 X73.938 Y82.035 E11.42083
G1 X74.008 Y81.217 E11.45086
G1 X74.218 Y80.436 E11.48045
G1 X74.553 Y79.722 E11.50931
G1 X75.005 Y79.074 E11.53821
G1 X75.574 Y78.505 E11.56765
G1 X76.222 Y78.053 E11.59656
G1 X76.936 Y77.718 E11.62541
G1 X77.717 Y77.508 E11.655
G1 X78.535 Y77.438 E11.68504
G1 X101.465 Y77.438 E12.52396
G1 X102.283 Y77.508 E12.554
G1 X103.064 Y77.718 E12.58358
G1 X103.78 Y78.053 E12.61251
G1 X104.426 Y78.503 E12.64131
G1 X104.995 Y79.073 E12.67078
G1 X105.447 Y79.722 E12.69971
G1 X105.784 Y80.44 E12.72873
G1 X105.992 Y81.213 E12.75802
G1 X106.062 Y82.028 E12.78794
G1 X106.062 Y97.965 E13.37102
G1 X105.992 Y98.783 E13.40105
G1 X105.782 Y99.564 E13.43064
G1 X105.447 Y100.278 E13.4595
G1 X104.995 Y100.926 E13.4884
G1 X104.426 Y101.495 E13.51784
G1 X103.778 Y101.947 E13.54675
G1 X103.064 Y102.282 E13.5756
G1 X102.283 Y102.492 E13.60519
G1 X101.465 Y102.562 E13.63523
G0 F6000 X93.324 Y93.201
G1 F900 X93.841 Y92.453 E13.6685
G1 X94.162 Y91.602 E13.70177
G1 X94.265 Y90.766 E13.73259
G1 X94.264 Y89.234 E13.78864
G1 X94.162 Y88.398 E13.81945
G1 X93.839 Y87.548 E13.85272
G1 X93.324 Y86.799 E13.88598
G1 X92.643 Y86.196 E13.91926
G1 X91.838 Y85.774 E13.95251
G1 X90.956 Y85.555 E13.98576
G1 X90.045 Y85.555 E14.01909
G1 X89.161 Y85.773 E14.0524
G1 X88.357 Y86.196 E14.08564
G1 X87.676 Y86.799 E14.11892
G1 X87.159 Y87.547 E14.15218
G1 X86.838 Y88.398 E14.18546
G1 X86.735 Y89.234 E14.21628
G1 X86.736 Y90.766 E14.27233
G1 X86.838 Y91.602 E14.30314
G1 X87.161 Y92.452 E14.33641
G1 X87.676 Y93.201 E14.36966
G1 X88.357 Y93.804 E14.40294
G1 X89.162 Y94.226 E14.43619
G1 X90.044 Y94.445 E14.46944
G1 X90.955 Y94.445 E14.50277
G1 X91.839 Y94.227 E14.53608
G1 X92.643 Y93.804 E14.56932
G1 X93.324 Y93.201 E14.6026
G0 F6000 X103.784 Y78.272
G1 F900 X105.221 Y79.708 E14.67693
G0 F6000 X105.701 Y80.811
G1 F900 X102.69 Y77.8 E14.83272
G0 F6000 X101.921 Y77.653
G1 F900 X105.847 Y81.579 E15.03585
G0 F6000 X105.884 Y82.239
G1 F900 X101.259 Y77.614 E15.27515
G0 F6000 X100.637 Y77.614
G1 F900 X105.884 Y82.861 E15.54664
G0 F6000 X105.884 Y83.483
G1 F900 X100.015 Y77.614 E15.8503
G0 F6000 X99.393 Y77.614
G1 F900 X105.884 Y84.106 E16.18618
G0 F6000 X105.884 Y84.728
G1 F900 X98.77 Y77.614 E16.55426
G0 F6000 X98.148 Y77.614
G1 F900 X105.884 Y85.35 E16.95452
G0 F6000 X105.884 Y85.972
G1 F900 X97.526 Y77.614 E17.38697
G0 F6000 X96.904 Y77.614
G1 F900 X105.884 Y86.595 E17.85163
G0 F6000 X105.884 Y87.217
G1 F900 X96.281 Y77.614 E18.34849
G0 F6000 X95.659 Y77.614
G1 F900 X105.884 Y87.839 E18.87754
G0 F6000 X105.884 Y88.461
G1 F900 X95.037 Y77.614 E19.43877
G0 F6000 X94.415 Y77.614
G1 F900 X105.884 Y89.084 E20.03221
G0 F6000 X105.884 Y89.706
G1 F900 X93.792 Y77.614 E20.65786
G0 F6000 X93.17 Y77.614
G1 F900 X105.884 Y90.328 E21.31569
G0 F6000 X105.884 Y90.95
G1 F900 X92.548 Y77.614 E22.0057
G0 F6000 X91.926 Y77.614
G1 F900 X105.884 Y91.573 E22.72792
G0 F6000 X105.884 Y92.195
G1 F900 X91.303 Y77.614 E23.48235
G0 F6000 X90.681 Y77.614
G1 F900 X105.884 Y92.817 E24.26897
G0 F6000 X105.884 Y93.439
G1 F900 X90.059 Y77.614 E25.08776
G0 F6000 X89.436 Y77.614
G1 F900 X105.884 Y94.062 E25.93879
G0 F6000 X105.884 Y94.684
G1 F900 X88.814 Y77.614 E26.822
G0 F6000 X88.192 Y77.614
G1 F900 X105.884 Y95.306 E27.7374
G0 F6000 X105.884 Y95.928
G1 F900 X87.57 Y77.614 E28.68498
G0 F6000 X86.947 Y77.614
G1 F900 X105.884 Y96.551 E29.66479
G0 F6000 X105.884 Y97.173
G1 F900 X86.325 Y77.614 E30.67678
G0 F6000 X85.703 Y77.614
G1 F900 X105.884 Y97.795 E31.72096
G0 F6000 X105.849 Y98.382
G1 F900 X85.081 Y77.614 E32.79551
G0 F6000 X84.458 Y77.614
G1 F900 X105.771 Y98.927 E33.89826
G0 F6000 X105.639 Y99.417
G1 F900 X94.182 Y87.959 E34.49108
G0 F6000 X94.385 Y88.785
G1 F900 X105.452 Y99.851 E35.06367
G0 F6000 X105.241 Y100.263
G1 F900 X94.439 Y89.461 E35.62257
G0 F6000 X94.439 Y90.083
G1 F900 X104.986 Y100.63 E36.16828
G0 F6000 X104.702 Y100.968
G1 F900 X94.439 Y90.705 E36.69929
G0 F6000 X94.378 Y91.267
G1 F900 X104.39 Y101.279 E37.21732
G0 F6000 X104.038 Y101.549
G1 F900 X94.278 Y91.789 E37.72231
G0 F6000 X94.107 Y92.24
G1 F900 X103.669 Y101.802 E38.21705
G0 F6000 X103.246 Y102.001
G1 F900 X93.907 Y92.662 E38.70026
G0 F6000 X93.653 Y93.031
G1 F900 X102.794 Y102.171 E39.17319
G0 F6000 X102.303 Y102.303
G1 F900 X93.383 Y93.383 E39.63472
G0 F6000 X93.053 Y93.675
G1 F900 X101.738 Y102.36 E40.08408
G0 F6000 X101.14 Y102.384
G1 F900 X92.718 Y93.963 E40.51982
G0 F6000 X92.311 Y94.178
G1 F900 X100.518 Y102.384 E40.94443
G0 F6000 X99.895 Y102.384
G1 F900 X91.903 Y94.392 E41.35794
G0 F6000 X91.404 Y94.515
G1 F900 X99.273 Y102.384 E41.76509
G0 F6000 X98.651 Y102.384
G1 F900 X90.887 Y94.62 E42.1668
G0 F6000 X90.265 Y94.62
G1 F900 X98.029 Y102.384 E42.56851
G0 F6000 X97.406 Y102.384
G1 F900 X89.516 Y94.494 E42.97675
G0 F6000 X88.452 Y94.052
G1 F900 X96.784 Y102.384 E43.40785
G0 F6000 X96.162 Y102.384
G1 F900 X74.36 Y80.582 E44.5359
G0 F6000 X74.547 Y80.147
G1 F900 X87.16 Y92.761 E45.18853
G0 F6000 X86.665 Y91.643
G1 F900 X74.758 Y79.736 E45.80461
G0 F6000 X75.013 Y79.369
G1 F900 X86.58 Y90.936 E46.40309
G0 F6000 X86.56 Y90.294
G1 F900 X75.297 Y79.031 E46.98584
G0 F6000 X75.608 Y78.72
G1 F900 X86.559 Y89.671 E47.55246
G0 F6000 X86.578 Y89.067
G1 F900 X75.96 Y78.449 E48.10184
G0 F6000 X76.33 Y78.196
G1 F900 X86.646 Y88.513 E48.63562
G0 F6000 X86.788 Y88.032
G1 F900 X76.753 Y77.998 E49.15481
G0 F6000 X77.205 Y77.827
G1 F900 X86.958 Y87.58 E49.65944
G0 F6000 X87.191 Y87.191
G1 F900 X77.695 Y77.695 E50.15077
G0 F6000 X78.26 Y77.638
G1 F900 X87.445 Y86.822 E50.62598
G0 F6000 X87.745 Y86.501
G1 F900 X78.858 Y77.614 E51.0858
G0 F6000 X79.48 Y77.614
G1 F900 X88.075 Y86.208 E51.53048
G0 F6000 X88.44 Y85.951
G1 F900 X80.103 Y77.614 E51.96184
G0 F6000 X80.725 Y77.614
G1 F900 X88.848 Y85.737 E52.38213
G0 F6000 X89.292 Y85.559
G1 F900 X81.347 Y77.614 E52.79321
G0 F6000 X81.969 Y77.614
G1 F900 X89.791 Y85.436 E53.19793
G0 F6000 X90.356 Y85.378
G1 F900 X82.592 Y77.614 E53.59964
G0 F6000 X83.214 Y77.614
G1 F900 X90.979 Y85.379 E54.00141
G0 F6000 X91.807 Y85.585
G1 F900 X83.836 Y77.614 E54.41383
G0 F6000 X74.227 Y81.072
G1 F900 X95.54 Y102.384 E55.51655
G0 F6000 X94.917 Y102.384
G1 F900 X74.149 Y81.616 E56.5911
G0 F6000 X74.113 Y82.203
G1 F900 X94.295 Y102.384 E57.63531
G0 F6000 X93.673 Y102.384
G1 F900 X74.113 Y82.825 E58.64733
G0 F6000 X74.113 Y83.447
G1 F900 X93.051 Y102.384 E59.62717
G0 F6000 X92.428 Y102.384
G1 F900 X74.113 Y84.07 E60.57477
G0 F6000 X74.113 Y84.692
G1 F900 X91.806 Y102.384 E61.49019
G0 F6000 X91.184 Y102.384
G1 F900 X74.113 Y85.314 E62.37343
G0 F6000 X74.113 Y85.936
G1 F900 X90.561 Y102.384 E63.22446
G0 F6000 X89.939 Y102.384
G1 F900 X74.113 Y86.559 E64.04328
G0 F6000 X74.113 Y87.181
G1 F900 X89.317 Y102.384 E64.82992
G0 F6000 X88.695 Y102.384
G1 F900 X74.113 Y87.803 E65.58438
G0 F6000 X74.113 Y88.425
G1 F900 X88.072 Y102.384 E66.30662
G0 F6000 X87.45 Y102.384
G1 F900 X74.113 Y89.048 E66.99666
G0 F6000 X74.113 Y89.67
G1 F900 X86.828 Y102.384 E67.65452
G0 F6000 X86.206 Y102.384
G1 F900 X74.113 Y90.292 E68.28019
G0 F6000 X74.113 Y90.914
G1 F900 X85.583 Y102.384 E68.87366
G0 F6000 X84.961 Y102.384
G1 F900 X74.113 Y91.537 E69.43491
G0 F6000 X74.113 Y92.159
G1 F900 X84.339 Y102.384 E69.96399
G0 F6000 X83.717 Y102.384
G1 F900 X74.113 Y92.781 E70.46088
G0 F6000 X74.113 Y93.403
G1 F900 X83.094 Y102.384 E70.92556
G0 F6000 X82.472 Y102.384
G1 F900 X74.113 Y94.026 E71.35803
G0 F6000 X74.113 Y94.648
G1 F900 X81.85 Y102.384 E71.75833
G0 F6000 X81.228 Y102.384
G1 F900 X74.113 Y95.27 E72.12643
G0 F6000 X74.113 Y95.892
G1 F900 X80.605 Y102.384 E72.46233
G0 F6000 X79.983 Y102.384
G1 F900 X74.113 Y96.515 E72.76603
G0 F6000 X74.113 Y97.137
G1 F900 X79.361 Y102.384 E73.03753
G0 F6000 X78.739 Y102.384
G1 F900 X74.113 Y97.759 E73.27686
G0 F6000 X74.153 Y98.421
G1 F900 X78.078 Y102.345 E73.47992
G0 F6000 X77.309 Y102.199
G1 F900 X74.298 Y99.188 E73.63571
G0 F6000 X74.777 Y100.29
G1 F900 X76.214 Y101.727 E73.71006
;MESH:NONMESH
G0 F240 X76.214 Y101.727 Z0.4
G0 F6000 X90.052 Y94.106
G0 X90.122 Y93.826
;TIME_ELAPSED:150.265833
;LAYER:1
M106 S63.8
;TYPE:WALL-INNER
;MESH:Holder-PhotoResistor.stl
G1 F1350 X90.876 Y93.825 E73.73765
G1 X91.332 Y93.716 E73.7548
G1 X91.618 Y93.642 E73.76561
G1 X92.289 Y93.291 E73.79331
G1 X92.857 Y92.788 E73.82107
G1 X93.288 Y92.163 E73.84885
G1 X93.556 Y91.453 E73.87661
G1 X93.644 Y90.74 E73.9029
G1 X93.644 Y89.26 E73.95704
G1 X93.556 Y88.547 E73.98333
G1 X93.288 Y87.837 E74.01109
G1 X92.857 Y87.212 E74.03887
G1 X92.289 Y86.709 E74.06663
G1 X91.617 Y86.356 E74.0944
G1 X90.878 Y86.174 E74.12224
G1 X90.124 Y86.175 E74.14983
G1 X89.668 Y86.284 E74.16698
G1 X89.382 Y86.358 E74.17779
G1 X88.711 Y86.709 E74.2055
G1 X88.143 Y87.212 E74.23325
G1 X87.712 Y87.837 E74.26103
G1 X87.444 Y88.547 E74.2888
G1 X87.356 Y89.259 E74.31504
G1 X87.355 Y90.741 E74.36926
G1 X87.444 Y91.454 E74.39555
G1 X87.712 Y92.163 E74.42328
G1 X88.143 Y92.788 E74.45106
G1 X88.711 Y93.291 E74.47882
G1 X89.383 Y93.644 E74.50659
G1 X90.122 Y93.826 E74.53443
G0 F7500 X90.175 Y93.386
;TYPE:WALL-OUTER
G1 F1350 X90.824 Y93.385 E74.55818
G1 X91.226 Y93.289 E74.5733
G1 X91.459 Y93.229 E74.5821
G1 X92.037 Y92.926 E74.60598
G1 X92.525 Y92.494 E74.62982
G1 X92.895 Y91.957 E74.65368
G1 X93.126 Y91.347 E74.67755
G1 X93.204 Y90.713 E74.70092
G1 X93.204 Y89.287 E74.75309
G1 X93.126 Y88.653 E74.77646
G1 X92.895 Y88.043 E74.80032
G1 X92.525 Y87.506 E74.82418
G1 X92.037 Y87.074 E74.84803
G1 X91.46 Y86.77 E74.87189
G1 X90.825 Y86.614 E74.89581
G1 X90.176 Y86.615 E74.91955
G1 X89.774 Y86.711 E74.93468
G1 X89.541 Y86.771 E74.94348
G1 X88.963 Y87.074 E74.96735
G1 X88.475 Y87.506 E74.9912
G1 X88.105 Y88.043 E75.01506
G1 X87.874 Y88.653 E75.03892
G1 X87.796 Y89.286 E75.06226
G1 X87.795 Y90.714 E75.1145
G1 X87.874 Y91.347 E75.13784
G1 X88.105 Y91.957 E75.1617
G1 X88.475 Y92.494 E75.18556
G1 X88.963 Y92.926 E75.20941
G1 X89.54 Y93.23 E75.23327
G1 X90.175 Y93.386 E75.25719
G0 F7500 X90.118 Y93.866
G0 X90.111 Y93.925
G0 X78.53 Y103.112
G0 X78.526 Y103.211
;TYPE:WALL-INNER
G1 F1350 X77.6 Y103.128 E75.29121
G1 X76.717 Y102.893 E75.32464
G1 X75.893 Y102.507 E75.35793
G1 X75.158 Y101.993 E75.39074
G1 X74.509 Y101.344 E75.42432
G1 X73.99 Y100.605 E75.45736
G1 X73.607 Y99.783 E75.49054
G1 X73.372 Y98.9 E75.52397
G1 X73.289 Y97.974 E75.55798
G1 X73.29 Y82.023 E76.14157
G1 X73.372 Y81.1 E76.17547
G1 X73.607 Y80.217 E76.2089
G1 X73.993 Y79.393 E76.24219
G1 X74.507 Y78.658 E76.27501
G1 X75.156 Y78.009 E76.30859
G1 X75.895 Y77.49 E76.34162
G1 X76.717 Y77.107 E76.3748
G1 X77.6 Y76.872 E76.40823
G1 X78.524 Y76.79 E76.44217
G1 X101.474 Y76.789 E77.28182
G1 X102.4 Y76.872 E77.31584
G1 X103.283 Y77.107 E77.34927
G1 X104.107 Y77.493 E77.38256
G1 X104.842 Y78.007 E77.41537
G1 X105.491 Y78.656 E77.44895
G1 X106.01 Y79.395 E77.48199
G1 X106.393 Y80.217 E77.51517
G1 X106.628 Y81.1 E77.5486
G1 X106.711 Y82.026 E77.58261
