;FLAVOR:Marlin
;TIME:5130
;Filament used: 4.64855m
;Layer height: 0.2
;MINX:55.22
;MINY:37.853
;MINZ:0.2
;MAXX:124.78
;MAXY:102.78
;MAXZ:16
;Generated with Cura_SteamEngine 4.13.1
M140 S70
M105
M190 S70
M104 S230
M105
M109 S230
M82 ;absolute extrusion mode
G28 ; home all axes
 M117 Purge extruder
 G92 E0 ; reset extruder
 G1 Z1.0 F3000 ; move z up little to prevent scratching of surface
 G1 X2 Y20 Z0.3 F5000.0 ; move to start-line position
 G1 X2 Y175.0 Z0.3 F1500.0 E15 ; draw 1st line
 G1 X2 Y175.0 Z0.4 F5000.0 ; move to side a little
 G1 X2 Y20 Z0.4 F1500.0 E30 ; draw 2nd line
 G92 E0 ; reset extruder
 G1 Z1.0 F3000 ; move z up little to prevent scratching of surface
G92 E0
G92 E0
G1 F2400 E-1.5
;LAYER_COUNT:80
;LAYER:0
M107
G1 F240 Z0.6
;MESH:LatencyMeter-Cap.stl
G0 F6000 X123.46 Y62.093 Z0.6
;TYPE:WALL-INNER
G1 F240 Z0.2
G1 F2400 E0
G1 F900 X56.54 Y62.093 E2.44835
G1 X56.54 Y39.173 E3.2869
G1 X123.46 Y39.173 E5.73524
G1 X123.46 Y43.593 E5.89696
G1 X122.16 Y43.593 E5.94452
G1 X122.16 Y57.673 E6.45965
G1 X123.46 Y57.673 E6.50721
G1 X123.46 Y62.093 E6.66892
G0 F6000 X123.9 Y62.533
G1 F900 X56.1 Y62.533 E9.14946
G1 X56.1 Y38.733 E10.02021
G1 X123.9 Y38.733 E12.50076
G1 X123.9 Y44.033 E12.69466
G1 X122.6 Y44.033 E12.74222
G1 X122.6 Y57.233 E13.22516
G1 X123.9 Y57.233 E13.27272
G1 X123.9 Y62.533 E13.46663
G0 F6000 X123.963 Y62.973
G1 F900 X56.037 Y62.973 E15.95178
G1 X55.927 Y62.961 E15.95583
G1 X55.851 Y62.934 E15.95878
G1 X55.79 Y62.895 E15.96143
G1 X55.736 Y62.842 E15.9642
G1 X55.7 Y62.784 E15.96669
G1 X55.672 Y62.706 E15.96973
G1 X55.66 Y62.596 E15.97377
G1 X55.66 Y38.671 E16.8491
G1 X55.672 Y38.559 E16.85322
G1 X55.698 Y38.485 E16.85609
G1 X55.735 Y38.427 E16.85861
G1 X55.794 Y38.368 E16.86166
G1 X55.851 Y38.332 E16.86413
G1 X55.927 Y38.305 E16.86708
G1 X56.037 Y38.293 E16.87112
G1 X123.963 Y38.293 E19.35627
G1 X124.073 Y38.305 E19.36032
G1 X124.149 Y38.332 E19.36327
G1 X124.206 Y38.368 E19.36574
G1 X124.265 Y38.427 E19.36879
G1 X124.302 Y38.485 E19.37131
G1 X124.328 Y38.559 E19.37418
G1 X124.34 Y38.671 E19.3783
G1 X124.34 Y44.473 E19.59057
G1 X123.04 Y44.473 E19.63814
G1 X123.04 Y56.793 E20.08888
G1 X124.34 Y56.793 E20.13644
G1 X124.34 Y62.596 E20.34875
G1 X124.328 Y62.706 E20.3528
G1 X124.3 Y62.784 E20.35583
G1 X124.264 Y62.842 E20.35833
G1 X124.21 Y62.895 E20.36109
G1 X124.149 Y62.934 E20.36374
G1 X124.073 Y62.961 E20.36669
G1 X123.963 Y62.973 E20.37074
G0 F6000 X123.984 Y63.413
;TYPE:WALL-OUTER
G1 F900 X56.016 Y63.413 E22.85743
G1 X55.826 Y63.392 E22.86442
G1 X55.659 Y63.333 E22.8709
G1 X55.515 Y63.242 E22.87714
G1 X55.39 Y63.118 E22.88358
G1 X55.3 Y62.974 E22.88979
G1 X55.241 Y62.807 E22.89627
G1 X55.22 Y62.617 E22.90326
G1 X55.22 Y38.649 E23.78016
G1 X55.241 Y38.46 E23.78712
G1 X55.3 Y38.292 E23.79363
G1 X55.389 Y38.151 E23.79973
G1 X55.518 Y38.022 E23.80641
G1 X55.659 Y37.933 E23.81251
G1 X55.826 Y37.874 E23.81899
G1 X56.016 Y37.853 E23.82598
G1 X123.984 Y37.853 E26.31267
G1 X124.174 Y37.874 E26.31966
G1 X124.341 Y37.933 E26.32614
G1 X124.482 Y38.022 E26.33224
G1 X124.611 Y38.151 E26.33892
G1 X124.7 Y38.292 E26.34502
G1 X124.759 Y38.46 E26.35153
G1 X124.78 Y38.649 E26.35849
G1 X124.78 Y44.913 E26.58767
G1 X123.48 Y44.913 E26.63523
G1 X123.48 Y56.353 E27.05377
G1 X124.78 Y56.353 E27.10134
G1 X124.78 Y62.617 E27.33051
G1 X124.759 Y62.807 E27.3375
G1 X124.7 Y62.974 E27.34398
G1 X124.61 Y63.118 E27.3502
G1 X124.485 Y63.242 E27.35664
G1 X124.341 Y63.333 E27.36287
G1 X124.174 Y63.392 E27.36935
G1 X123.984 Y63.413 E27.37634
G0 F6000 X123.958 Y62.93
G0 X123.958 Y62.873
G0 X123.03 Y61.663
;TYPE:SKIN
G1 F900 X56.97 Y61.663 E29.79323
G1 X56.97 Y39.603 E30.60032
G1 X123.03 Y39.603 E33.0172
G1 X123.03 Y43.163 E33.14744
G1 X121.73 Y43.163 E33.19501
G1 X121.73 Y58.103 E33.7416
G1 X123.03 Y58.103 E33.78916
G1 X123.03 Y61.663 E33.91941
G0 F6000 X122.853 Y40.093
G1 F900 X122.538 Y39.778 E33.93571
G0 F6000 X121.916 Y39.778
G1 F900 X122.853 Y40.715 E33.98419
G0 F6000 X122.853 Y41.338
G1 F900 X121.294 Y39.778 E34.06488
G0 F6000 X120.672 Y39.778
G1 F900 X122.853 Y41.96 E34.17775
G0 F6000 X122.853 Y42.582
G1 F900 X120.049 Y39.778 E34.32283
G0 F6000 X119.427 Y39.778
G1 F900 X122.635 Y42.987 E34.48884
G0 F6000 X122.013 Y42.987
G1 F900 X118.805 Y39.778 E34.65485
G0 F6000 X118.182 Y39.778
G1 F900 X121.553 Y43.149 E34.82927
G0 F6000 X121.553 Y43.772
G1 F900 X117.56 Y39.778 E35.0359
G0 F6000 X116.938 Y39.778
G1 F900 X121.553 Y44.394 E35.27471
G0 F6000 X121.553 Y45.016
G1 F900 X116.316 Y39.778 E35.5457
G0 F6000 X115.693 Y39.778
G1 F900 X121.553 Y45.638 E35.8489
G0 F6000 X121.553 Y46.261
G1 F900 X115.071 Y39.778 E36.18431
G0 F6000 X114.449 Y39.778
G1 F900 X121.553 Y46.883 E36.5519
G0 F6000 X121.553 Y47.505
G1 F900 X113.827 Y39.778 E36.95167
G0 F6000 X113.204 Y39.778
G1 F900 X121.553 Y48.127 E37.38365
G0 F6000 X121.553 Y48.75
G1 F900 X112.582 Y39.778 E37.84784
G0 F6000 X111.96 Y39.778
G1 F900 X121.553 Y49.372 E38.34422
G0 F6000 X121.553 Y49.994
G1 F900 X111.338 Y39.778 E38.87277
G0 F6000 X110.715 Y39.778
G1 F900 X121.553 Y50.616 E39.43354
G0 F6000 X121.553 Y51.239
G1 F900 X110.093 Y39.778 E40.02651
G0 F6000 X109.471 Y39.778
G1 F900 X121.553 Y51.861 E40.65167
G0 F6000 X121.553 Y52.483
G1 F900 X108.849 Y39.778 E41.30901
G0 F6000 X108.226 Y39.778
G1 F900 X121.553 Y53.105 E41.99856
G0 F6000 X121.553 Y53.728
G1 F900 X107.604 Y39.778 E42.72031
G0 F6000 X106.982 Y39.778
G1 F900 X121.553 Y54.35 E43.47425
G0 F6000 X121.553 Y54.972
G1 F900 X106.36 Y39.778 E44.26037
G0 F6000 X105.737 Y39.778
G1 F900 X121.553 Y55.594 E45.0787
G0 F6000 X121.553 Y56.217
G1 F900 X105.115 Y39.778 E45.92924
G0 F6000 X104.493 Y39.778
G1 F900 X121.553 Y56.839 E46.81196
G0 F6000 X121.553 Y57.461
G1 F900 X103.871 Y39.778 E47.72686
G0 F6000 X103.248 Y39.778
G1 F900 X121.553 Y58.083 E48.67398
G0 F6000 X121.748 Y58.279
G1 F900 X122.853 Y59.383 E48.73112
G0 F6000 X122.853 Y58.761
G1 F900 X122.371 Y58.279 E48.75606
G0 F6000 X122.853 Y60.005
G1 F900 X102.626 Y39.778 E49.80262
G0 F6000 X102.004 Y39.778
G1 F900 X122.853 Y60.628 E50.88139
G0 F6000 X122.853 Y61.25
G1 F900 X101.382 Y39.778 E51.99234
G0 F6000 X100.759 Y39.778
G1 F900 X122.467 Y61.486 E53.11552
G0 F6000 X121.845 Y61.486
G1 F900 X100.137 Y39.778 E54.23871
G0 F6000 X99.515 Y39.778
G1 F900 X121.222 Y61.486 E55.36187
G0 F6000 X120.6 Y61.486
G1 F900 X98.893 Y39.778 E56.48503
G0 F6000 X98.27 Y39.778
G1 F900 X119.978 Y61.486 E57.60821
G0 F6000 X119.356 Y61.486
G1 F900 X97.648 Y39.778 E58.7314
G0 F6000 X97.026 Y39.778
G1 F900 X118.733 Y61.486 E59.85456
G0 F6000 X118.111 Y61.486
G1 F900 X96.404 Y39.778 E60.97772
G0 F6000 X95.781 Y39.778
G1 F900 X117.489 Y61.486 E62.1009
G0 F6000 X116.867 Y61.486
G1 F900 X95.159 Y39.778 E63.22409
G0 F6000 X94.537 Y39.778
G1 F900 X116.244 Y61.486 E64.34725
G0 F6000 X115.622 Y61.486
G1 F900 X93.915 Y39.778 E65.47041
G0 F6000 X93.292 Y39.778
G1 F900 X115 Y61.486 E66.59359
G0 F6000 X114.378 Y61.486
G1 F900 X92.67 Y39.778 E67.71678
G0 F6000 X92.048 Y39.778
G1 F900 X113.755 Y61.486 E68.83994
G0 F6000 X113.133 Y61.486
G1 F900 X91.426 Y39.778 E69.9631
G0 F6000 X90.803 Y39.778
G1 F900 X112.511 Y61.486 E71.08628
G0 F6000 X111.889 Y61.486
G1 F900 X90.181 Y39.778 E72.20947
G0 F6000 X89.559 Y39.778
G1 F900 X111.266 Y61.486 E73.33263
G0 F6000 X110.644 Y61.486
G1 F900 X88.937 Y39.778 E74.45579
G0 F6000 X88.314 Y39.778
G1 F900 X110.022 Y61.486 E75.57897
G0 F6000 X109.4 Y61.486
G1 F900 X87.692 Y39.778 E76.70216
G0 F6000 X87.07 Y39.778
G1 F900 X108.777 Y61.486 E77.82532
G0 F6000 X108.155 Y61.486
G1 F900 X86.448 Y39.778 E78.94848
G0 F6000 X85.825 Y39.778
G1 F900 X107.533 Y61.486 E80.07166
G0 F6000 X106.911 Y61.486
G1 F900 X85.203 Y39.778 E81.19485
G0 F6000 X84.581 Y39.778
G1 F900 X106.288 Y61.486 E82.31801
G0 F6000 X105.666 Y61.486
G1 F900 X83.959 Y39.778 E83.44117
G0 F6000 X83.336 Y39.778
G1 F900 X105.044 Y61.486 E84.56435
G0 F6000 X104.421 Y61.486
G1 F900 X82.714 Y39.778 E85.68751
G0 F6000 X82.092 Y39.778
G1 F900 X103.799 Y61.486 E86.81067
G0 F6000 X103.177 Y61.486
G1 F900 X81.47 Y39.778 E87.93383
G0 F6000 X80.847 Y39.778
G1 F900 X102.555 Y61.486 E89.05702
G0 F6000 X101.932 Y61.486
G1 F900 X80.225 Y39.778 E90.18018
G0 F6000 X79.603 Y39.778
G1 F900 X101.31 Y61.486 E91.30334
G0 F6000 X100.688 Y61.486
G1 F900 X78.98 Y39.778 E92.42652
G0 F6000 X78.358 Y39.778
G1 F900 X100.066 Y61.486 E93.54971
G0 F6000 X99.443 Y61.486
G1 F900 X77.736 Y39.778 E94.67287
G0 F6000 X77.114 Y39.778
G1 F900 X98.821 Y61.486 E95.79603
G0 F6000 X98.199 Y61.486
G1 F900 X76.491 Y39.778 E96.91921
G0 F6000 X75.869 Y39.778
G1 F900 X97.577 Y61.486 E98.0424
G0 F6000 X96.954 Y61.486
G1 F900 X75.247 Y39.778 E99.16556
G0 F6000 X74.625 Y39.778
G1 F900 X96.332 Y61.486 E100.28872
G0 F6000 X95.71 Y61.486
G1 F900 X74.002 Y39.778 E101.4119
G0 F6000 X73.38 Y39.778
G1 F900 X95.088 Y61.486 E102.53509
G0 F6000 X94.465 Y61.486
G1 F900 X72.758 Y39.778 E103.65825
G0 F6000 X72.136 Y39.778
G1 F900 X93.843 Y61.486 E104.78141
G0 F6000 X93.221 Y61.486
G1 F900 X71.513 Y39.778 E105.90459
G0 F6000 X70.891 Y39.778
G1 F900 X92.599 Y61.486 E107.02778
G0 F6000 X91.976 Y61.486
G1 F900 X70.269 Y39.778 E108.15094
G0 F6000 X69.647 Y39.778
G1 F900 X91.354 Y61.486 E109.2741
G0 F6000 X90.732 Y61.486
G1 F900 X69.024 Y39.778 E110.39728
G0 F6000 X68.402 Y39.778
G1 F900 X90.11 Y61.486 E111.52047
G0 F6000 X89.487 Y61.486
G1 F900 X67.78 Y39.778 E112.64363
G0 F6000 X67.158 Y39.778
G1 F900 X88.865 Y61.486 E113.76679
G0 F6000 X88.243 Y61.486
G1 F900 X66.535 Y39.778 E114.88998
G0 F6000 X65.913 Y39.778
G1 F900 X87.621 Y61.486 E116.01316
G0 F6000 X86.998 Y61.486
G1 F900 X65.291 Y39.778 E117.13632
G0 F6000 X64.669 Y39.778
G1 F900 X86.376 Y61.486 E118.25948
G0 F6000 X85.754 Y61.486
G1 F900 X64.046 Y39.778 E119.38267
G0 F6000 X63.424 Y39.778
G1 F900 X85.132 Y61.486 E120.50585
G0 F6000 X84.509 Y61.486
G1 F900 X62.802 Y39.778 E121.62901
G0 F6000 X62.18 Y39.778
G1 F900 X83.887 Y61.486 E122.75217
G0 F6000 X83.265 Y61.486
G1 F900 X61.557 Y39.778 E123.87536
G0 F6000 X60.935 Y39.778
G1 F900 X82.643 Y61.486 E124.99854
G0 F6000 X82.02 Y61.486
G1 F900 X60.313 Y39.778 E126.1217
G0 F6000 X59.691 Y39.778
G1 F900 X81.398 Y61.486 E127.24486
G0 F6000 X80.776 Y61.486
G1 F900 X59.068 Y39.778 E128.36805
G0 F6000 X58.446 Y39.778
G1 F900 X80.154 Y61.486 E129.49123
G0 F6000 X79.531 Y61.486
G1 F900 X57.824 Y39.778 E130.61439
G0 F6000 X57.202 Y39.778
G1 F900 X78.909 Y61.486 E131.73755
G0 F6000 X78.287 Y61.486
G1 F900 X57.145 Y40.344 E132.83145
G0 F6000 X57.145 Y40.966
G1 F900 X77.665 Y61.486 E133.89317
G0 F6000 X77.042 Y61.486
G1 F900 X57.145 Y41.589 E134.92265
G0 F6000 X57.145 Y42.211
G1 F900 X76.42 Y61.486 E135.91995
G0 F6000 X75.798 Y61.486
G1 F900 X57.145 Y42.833 E136.88507
G0 F6000 X57.145 Y43.455
G1 F900 X75.176 Y61.486 E137.81801
G0 F6000 X74.553 Y61.486
G1 F900 X57.145 Y44.078 E138.71871
G0 F6000 X57.145 Y44.7
G1 F900 X73.931 Y61.486 E139.58723
G0 F6000 X73.309 Y61.486
G1 F900 X57.145 Y45.322 E140.42356
G0 F6000 X57.145 Y45.944
G1 F900 X72.687 Y61.486 E141.22771
G0 F6000 X72.064 Y61.486
G1 F900 X57.145 Y46.567 E141.99963
G0 F6000 X57.145 Y47.189
G1 F900 X71.442 Y61.486 E142.73937
G0 F6000 X70.82 Y61.486
G1 F900 X57.145 Y47.811 E143.44692
G0 F6000 X57.145 Y48.433
G1 F900 X70.198 Y61.486 E144.12229
G0 F6000 X69.575 Y61.486
G1 F900 X57.145 Y49.056 E144.76543
G0 F6000 X57.145 Y49.678
G1 F900 X68.953 Y61.486 E145.37638
G0 F6000 X68.331 Y61.486
G1 F900 X57.145 Y50.3 E145.95515
G0 F6000 X57.145 Y50.923
G1 F900 X67.709 Y61.486 E146.50171
G0 F6000 X67.086 Y61.486
G1 F900 X57.145 Y51.545 E147.01607
G0 F6000 X57.145 Y52.167
G1 F900 X66.464 Y61.486 E147.49824
G0 F6000 X65.842 Y61.486
G1 F900 X57.145 Y52.789 E147.94823
G0 F6000 X57.145 Y53.412
G1 F900 X65.219 Y61.486 E148.36598
G0 F6000 X64.597 Y61.486
G1 F900 X57.145 Y54.034 E148.75155
G0 F6000 X57.145 Y54.656
G1 F900 X63.975 Y61.486 E149.10494
G0 F6000 X63.353 Y61.486
G1 F900 X57.145 Y55.278 E149.42615
G0 F6000 X57.145 Y55.901
G1 F900 X62.73 Y61.486 E149.71512
G0 F6000 X62.108 Y61.486
G1 F900 X57.145 Y56.523 E149.97191
G0 F6000 X57.145 Y57.145
G1 F900 X61.486 Y61.486 E150.19651
G0 F6000 X60.864 Y61.486
G1 F900 X57.145 Y57.767 E150.38894
G0 F6000 X57.145 Y58.39
G1 F900 X60.241 Y61.486 E150.54912
G0 F6000 X59.619 Y61.486
G1 F900 X57.145 Y59.012 E150.67713
G0 F6000 X57.145 Y59.634
G1 F900 X58.997 Y61.486 E150.77295
G0 F6000 X58.375 Y61.486
G1 F900 X57.145 Y60.256 E150.8366
G0 F6000 X57.145 Y60.879
G1 F900 X57.752 Y61.486 E150.868
G1 F2400 E149.368
G1 F240 Z0.6
;MESH:LatencyMeter-Body.stl
G0 F6000 X57.752 Y61.486 Z0.6
G0 X108.01 Y100.26
;TYPE:WALL-INNER
G1 F240 Z0.2
G1 F2400 E150.868
G1 F900 X108.01 Y79.74 E151.61875
G1 X56.34 Y79.74 E153.50916
G1 X56.34 Y100.26 E154.2599
G1 X108.01 Y100.26 E156.15031
G0 F6000 X107.57 Y99.82
;TYPE:WALL-OUTER
G1 F900 X107.57 Y80.18 E156.86886
G1 X56.78 Y80.18 E158.72707
G1 X56.78 Y99.82 E159.44562
G1 X107.57 Y99.82 E161.30383
G0 F6000 X108.11 Y99.82
G0 X123.46 Y101.46
;TYPE:WALL-INNER
G1 F900 X108.89 Y101.46 E161.83689
G1 X56.54 Y101.46 E163.75218
G1 X56.54 Y101.14 E163.76389
G1 X108.89 Y101.14 E165.15999
G1 X108.89 Y78.86 E165.97513
G1 X56.54 Y78.86 E167.89042
G1 X56.54 Y78.54 E167.90213
G1 X108.89 Y78.54 E169.29823
G1 X123.46 Y78.54 E169.83129
G1 X123.46 Y101.46 E170.66985
G0 F6000 X123.9 Y101.9
G1 F900 X56.1 Y101.9 E173.15039
G1 X56.1 Y100.7 E173.19429
G1 X108.45 Y100.7 E175.10958
G1 X108.45 Y79.3 E175.89252
G1 X56.1 Y79.3 E177.80781
G1 X56.1 Y78.1 E177.85171
G1 X123.9 Y78.1 E180.33225
G1 X123.9 Y101.9 E181.203
G0 F6000 X123.963 Y102.34
G1 F900 X56.037 Y102.34 E183.68815
G1 X55.927 Y102.328 E183.6922
G1 X55.849 Y102.3 E183.69523
G1 X55.794 Y102.266 E183.6976
G1 X55.739 Y102.21 E183.70047
G1 X55.698 Y102.146 E183.70325
G1 X55.672 Y102.072 E183.70612
G1 X55.66 Y101.963 E183.71013
G1 X55.66 Y78.037 E184.58549
G1 X55.672 Y77.927 E184.58954
G1 X55.699 Y77.851 E184.59249
G1 X55.735 Y77.794 E184.59496
G1 X55.794 Y77.735 E184.59801
G1 X55.851 Y77.699 E184.60048
G1 X55.927 Y77.672 E184.60343
G1 X56.037 Y77.66 E184.60748
G1 X123.963 Y77.66 E187.09263
G1 X124.073 Y77.672 E187.09668
G1 X124.151 Y77.7 E187.09971
G1 X124.206 Y77.734 E187.10207
G1 X124.261 Y77.79 E187.10494
G1 X124.303 Y77.855 E187.10778
G1 X124.328 Y77.926 E187.11053
G1 X124.34 Y78.038 E187.11465
G1 X124.34 Y101.963 E187.98997
G1 X124.328 Y102.073 E187.99402
G1 X124.3 Y102.151 E187.99705
G1 X124.266 Y102.206 E187.99942
G1 X124.21 Y102.261 E188.00229
G1 X124.146 Y102.302 E188.00507
G1 X124.072 Y102.328 E188.00794
G1 X123.963 Y102.34 E188.01195
G0 F6000 X123.984 Y102.78
;TYPE:WALL-OUTER
G1 F900 X56.016 Y102.78 E190.49864
G1 X55.826 Y102.759 E190.50564
G1 X55.659 Y102.7 E190.51212
G1 X55.516 Y102.61 E190.5183
G1 X55.392 Y102.485 E190.52474
G1 X55.299 Y102.338 E190.5311
G1 X55.241 Y102.174 E190.53747
G1 X55.22 Y101.984 E190.54446
G1 X55.22 Y78.016 E191.42136
G1 X55.241 Y77.826 E191.42835
G1 X55.3 Y77.659 E191.43483
G1 X55.389 Y77.518 E191.44093
G1 X55.518 Y77.389 E191.44761
G1 X55.659 Y77.3 E191.45371
G1 X55.826 Y77.241 E191.46019
G1 X56.016 Y77.22 E191.46718
G1 X123.984 Y77.22 E193.95387
G1 X124.174 Y77.241 E193.96086
G1 X124.341 Y77.3 E193.96734
G1 X124.484 Y77.39 E193.97352
G1 X124.608 Y77.515 E193.97997
G1 X124.701 Y77.662 E193.98633
G1 X124.759 Y77.827 E193.99273
G1 X124.78 Y78.016 E193.99969
G1 X124.78 Y101.984 E194.87658
G1 X124.759 Y102.174 E194.88358
G1 X124.7 Y102.341 E194.89006
G1 X124.61 Y102.484 E194.89624
G1 X124.485 Y102.608 E194.90268
G1 X124.338 Y102.701 E194.90904
G1 X124.174 Y102.759 E194.91541
G1 X123.984 Y102.78 E194.9224
G0 F6000 X123.958 Y102.297
G0 X123.958 Y102.24
G0 X123.03 Y101.03
;TYPE:SKIN
G1 F900 X109.32 Y101.03 E195.424
G1 X109.32 Y78.97 E196.23109
G1 X123.03 Y78.97 E196.73268
G1 X123.03 Y101.03 E197.53977
G0 F6000 X109.565 Y100.853
G1 F900 X109.494 Y100.783 E197.54342
G0 F6000 X109.494 Y100.16
G1 F900 X110.187 Y100.853 E197.57928
G0 F6000 X110.809 Y100.853
G1 F900 X109.494 Y99.538 E197.64732
G0 F6000 X109.494 Y98.916
G1 F900 X111.432 Y100.853 E197.74757
G0 F6000 X112.054 Y100.853
G1 F900 X109.494 Y98.294 E197.88
G0 F6000 X109.494 Y97.671
G1 F900 X112.676 Y100.853 E198.04463
G0 F6000 X113.299 Y100.853
G1 F900 X109.494 Y97.049 E198.24148
